X: 1
T: THE BOYS OF BOCKHILL - JIG
B: Ryan's Mammoth Collection of Fiddle Tunes
R: jig
M: 6/8
L: 1/8
Z: Contributed 20021129142216 by John Chambers jmchambers:rcn.com
K: G
ud \
| (gfg) (e/f/ge) | dBG AGE | EGG AGA | (BAB) ABd \
| (gfg) (e/f/ge) | dBG AGE | DGG AGA | B(GG) G2 :|
|: ud \
| "4"edd gdd | "4"edd gdd | (e>g/f/a/) gfe | dBG A^FD \
| (gfg) (e/f/ge) | dBG AGE | D(GG) (A/B/c).A | B(GG) G2 :|
